X:33
T:Castle Kelly (reel)  
B:CRE1.108 (Caislean Ui Cheallaigh)
S:Sonny Brogan
F:file ID: cre.1/033cast_k
N:CRE shows this as an ABB tune.
M:C
L:1/8
Q:180
R:reel
K:Am
A2cA A2cA|GBE^F G2EG|A2cA GAcd|(3e^fg dB cAAE|
A2cA A2cA|GBE^F G2EG|A2cA GAcd|(3e^fg dB cAA2||
age^c d2ed|cAGE G3e|age^c d2^cd|eaab a2ba|
age^c d2ed|cAGE GGEG|A2cA GAcd|(3e^fg dB cAA2:|

%%%

